dist/intermediate-svg/redeemed.svg

<?xml version="1.0" encoding="utf-8"?><svg width="24" height="23.04" fill="none" xmlns="http://www.w3.org/2000/svg" viewBox="0 0 25 24"><circle cx="7.255" cy="18.294" r="1.618" stroke="#333"/><circle cx="16.784" cy="18.294" r="1.618" stroke="#333"/><path d="M8.84306 18.2941H15.196M18.3725 18.2941L21.0195 18.0294V16.8972C21.0195 16.4668 20.7441 16.0847 20.3358 15.9485L17.9105 15.1401C17.8656 15.1252 17.8218 15.107 17.7795 15.0859L13.8189 13.1056C13.6801 13.0361 13.5269 13 13.3717 13H9.37247 7.60561C7.37854 13 7.15822 13.0773 6.98091 13.2191L4.74704 15.0062C4.65492 15.0799 4.55048 15.1367 4.43857 15.174L3.7033 15.4191C3.29496 15.5552 3.01953 15.9374 3.01953 16.3678V18.2941H5.66659M5.02 3H19.02V11H5.02z" stroke="#333"/><path d="M12.275 8.46703H11.4014V9H10.5772V8.46703H10.0195V7.79945H10.5772V7.59066H10.0195V6.92308H10.5772V5H12.1322C12.4325 5 12.6963 5.05403 12.9234 5.16209C13.1505 5.27015 13.3263 5.42491 13.4509 5.62637C13.5772 5.82601 13.6404 6.05403 13.6404 6.31044C13.6404 6.70604 13.5058 7.01832 13.2366 7.24725C12.9692 7.47619 12.5965 7.59066 12.1184 7.59066H11.4014V7.79945H12.275V8.46703ZM11.4014 6.92308H12.1129C12.5745 6.92308 12.8052 6.7207 12.8052 6.31593C12.8052 6.12363 12.7466 5.96886 12.6294 5.85165C12.5122 5.7326 12.3501 5.67216 12.1432 5.67033H11.4014V6.92308Z" fill="#0094FF"/></svg>

<?xml version="1.0" encoding="utf-8"?><svg width="24" height="23.04" fill="none" xmlns="http://www.w3.org/2000/svg" viewBox="0 0 25 24"><circle cx="7.255" cy="18.294" r="1.618" stroke="#333"/><circle cx="16.784" cy="18.294" r="1.618" stroke="#333"/><path d="M8.843 18.294h6.353m3.176 0l2.648-.265v-1.132a1 1 0 00-.684-.948l-2.425-.809a.998.998 0 01-.132-.054l-3.96-1.98a.999.999 0 00-.447-.106H7.606a1 1 0 00-.625.22l-2.234 1.786a1 1 0 01-.308.168l-.736.245a1 1 0 00-.683.949v1.926h2.647M5.02 3h14v8h-14z" stroke="#333"/><path d="M12.275 8.467h-.874V9h-.824v-.533h-.557v-.668h.557v-.208h-.557v-.668h.557V5h1.555c.3 0 .564.054.791.162.227.108.403.263.528.464.126.2.19.428.19.684 0 .396-.135.708-.404.937-.268.23-.64.344-1.119.344h-.717v.208h.874v.668zm-.874-1.544h.712c.462 0 .692-.202.692-.607a.628.628 0 00-.176-.464c-.117-.12-.279-.18-.486-.182h-.742v1.253z" fill="#0094FF"/></svg>
